packages/bezier-icons/icons/chat-check-filled.svg

<svg width="24" height="24" viewBox="0 0 24 24" fill="none" xmlns="http://www.w3.org/2000/svg">
<path fill-rule="evenodd" clip-rule="evenodd" d="M20.8223 16.683C20.5763 17.144 20.5573 17.694 20.7233 18.19L21.3613 20.105C21.6223 20.886 20.8793 21.63 20.0973 21.37C19.6395 21.2172 19.1583 21.0569 18.7279 20.9135C18.5302 20.8476 18.3433 20.7853 18.1743 20.729C17.6813 20.565 17.1373 20.584 16.6783 20.829C14.7293 21.868 12.4033 22.29 9.94729 21.796C5.94629 20.991 2.78229 17.703 2.12929 13.675C1.02329 6.848 6.83729 1.033 13.6643 2.137C17.6933 2.789 20.9823 5.954 21.7873 9.954C22.2813 12.409 21.8613 14.734 20.8223 16.683ZM8.08406 11.6708L10.4035 13.898L15.852 8.77854C16.2544 8.40048 16.887 8.42018 17.2651 8.82254C17.6431 9.22487 17.6234 9.85746 17.2212 10.2355L11.1002 15.9881C10.7014 16.3629 10.0788 16.3596 9.68408 15.9805L6.69867 13.1135C6.30037 12.731 6.28747 12.0981 6.66987 11.6997C7.05239 11.3011 7.6856 11.2882 8.08406 11.6708Z" fill="#313234"/>
</svg>

<svg xmlns="http://www.w3.org/2000/svg" width="24" height="24" fill="none" viewBox="0 0 24 24"><path fill="#313234" fill-rule="evenodd" d="M20.822 16.683c-.246.461-.265 1.011-.099 1.507l.638 1.915a1 1 0 0 1-1.264 1.265l-1.37-.457-.553-.184c-.493-.164-1.037-.145-1.496.1-1.949 1.039-4.275 1.461-6.73.967-4.002-.805-7.166-4.093-7.819-8.121A10.013 10.013 0 0 1 13.664 2.137c4.03.652 7.318 3.817 8.123 7.817.494 2.455.074 4.78-.965 6.729M8.084 11.671l2.32 2.227 5.448-5.12a1 1 0 0 1 1.37 1.457L11.1 15.989a1.03 1.03 0 0 1-1.416-.008L6.7 13.113a1 1 0 0 1 1.385-1.442" clip-rule="evenodd"/></svg>
